icon-themes/sifr_svg/cmd/lc_starshapes.star24.svg

<svg viewBox="0 0 24 24" xmlns="http://www.w3.org/2000/svg"><path d="m11.314453 1-.267578 3.7617188-1.2324219-3.5664063-1.3242187.3574219.7167968 3.703125-2.1132812-3.125-1.1855469.6835937 1.6484375 3.3945313-2.8496094-2.4726563-.96875.96875 2.4726563 2.8496094-3.3925781-1.6484375-.6855469 1.1855469 3.1191406 2.1113281-3.6992187-.7148438-.3535156 1.328125 3.5625 1.2324218-3.7617188.265625v1.371094l3.7617188.265625-3.5625 1.232422.3535156 1.324218 3.703125-.716796-3.1230469 2.113281.6855469 1.189453 3.390625-1.650391-2.4707032 2.847657.96875.970703 2.2929688-1.988281v-6.273438h2.25a2.7493288 2.7496644 0 0 1 0-.001953 2.7493288 2.7496644 0 0 1 2.75-2.7500001 2.7493288 2.7496644 0 0 1 2.75 2.7500001 2.7493288 2.7496644 0 0 1 0 .001953h8.25v-.685547l-3.761719-.265625 3.5625-1.2324218-.353515-1.328125-3.699219.7148438 3.119141-2.1113281-.685547-1.1855469-3.392579 1.6484375 2.472657-2.8496094-.96875-.96875-2.84961 2.4726563 1.648438-3.3945313-1.185547-.6835937-2.113281 3.125.716797-3.703125-1.324219-.3574219-1.232422 3.5664063-.267578-3.7617188zm-.314453 12c-1.659999 0-3 1.34-3 3h2c0-.55.45-1 1-1 .549999 0 1 .45 1 1 0 .28-.059689.420313-.179688.570312l-3.820312 4.789063v1.640625h6v-2h-3.199219l2.5-3.199219c.321416-.3.699219-.850781.699219-1.800781 0-1.66-1.340001-3-3-3zm4 0v5 2h4v3h2v-3h2v-2h-2v-2h-2v2h-2v-5zm-8 5.935547-1.0917969 2.246094 1.0917969.632812z" fill="#555753"/></svg>

<svg xmlns="http://www.w3.org/2000/svg" viewBox="0 0 24 24">
  <path
     style="fill:#555753"
     d="M 11.314453 1 L 11.046875 4.7617188 L 9.8144531 1.1953125 L 8.4902344 1.5527344 L 9.2070312 5.2558594 L 7.09375 2.1308594 L 5.9082031 2.8144531 L 7.5566406 6.2089844 L 4.7070312 3.7363281 L 3.7382812 4.7050781 L 6.2109375 7.5546875 L 2.8183594 5.90625 L 2.1328125 7.0917969 L 5.2519531 9.203125 L 1.5527344 8.4882812 L 1.1992188 9.8164062 L 4.7617188 11.048828 L 1 11.314453 L 1 12.685547 L 4.7617188 12.951172 L 1.1992188 14.183594 L 1.5527344 15.507812 L 5.2558594 14.791016 L 2.1328125 16.904297 L 2.8183594 18.09375 L 6.2089844 16.443359 L 3.7382812 19.291016 L 4.7070312 20.261719 L 7 18.273438 L 7 12 L 9.25 12 A 2.7493288 2.7496644 0 0 1 9.25 11.998047 A 2.7493288 2.7496644 0 0 1 12 9.2480469 A 2.7493288 2.7496644 0 0 1 14.75 11.998047 A 2.7493288 2.7496644 0 0 1 14.75 12 L 23 12 L 23 11.314453 L 19.238281 11.048828 L 22.800781 9.8164062 L 22.447266 8.4882812 L 18.748047 9.203125 L 21.867188 7.0917969 L 21.181641 5.90625 L 17.789062 7.5546875 L 20.261719 4.7050781 L 19.292969 3.7363281 L 16.443359 6.2089844 L 18.091797 2.8144531 L 16.90625 2.1308594 L 14.792969 5.2558594 L 15.509766 1.5527344 L 14.185547 1.1953125 L 12.953125 4.7617188 L 12.685547 1 L 11.314453 1 z M 11 13 C 9.340001 13 8 14.34 8 16 L 10 16 C 10 15.45 10.45 15 11 15 C 11.549999 15 12 15.45 12 16 C 12 16.28 11.940311 16.420313 11.820312 16.570312 L 8 21.359375 L 8 23 L 14 23 L 14 21 L 10.800781 21 L 13.300781 17.800781 C 13.622197 17.500781 14 16.95 14 16 C 14 14.34 12.659999 13 11 13 z M 15 13 L 15 18 L 15 20 L 19 20 L 19 23 L 21 23 L 21 20 L 23 20 L 23 18 L 21 18 L 21 16 L 19 16 L 19 18 L 17 18 L 17 13 L 15 13 z M 7 18.935547 L 5.9082031 21.181641 L 7 21.814453 L 7 18.935547 z "
     />
</svg>
